.local/share/icons/Gruvbox-Plus-Dark/actions/24/vmware-component.svg

<svg xmlns="http://www.w3.org/2000/svg" width="24" height="24" version="1.1">
 <defs>
  <style id="current-color-scheme" type="text/css">
   .ColorScheme-Text { color:#555555; } .ColorScheme-Highlight { color:#4285f4; } .ColorScheme-NeutralText { color:#ff9800; } .ColorScheme-PositiveText { color:#4caf50; } .ColorScheme-NegativeText { color:#f44336; }
  </style>
 </defs>
 <path style="fill:currentColor" class="ColorScheme-Text" d="M 10.203125,5.000106 8.2792969,5.6141529 C 4.2136867,6.9264389 4.08235,6.9731154 4.03125,7.1278247 3.99261,7.2447444 4.1540525,7.436678 4.8515625,8.1082931 5.3288925,8.5679011 5.71875,8.9782521 5.71875,9.020403 c 0,0.04215 -0.386475,0.438281 -0.859375,0.880859 C 4.386485,10.343839 4,10.748794 4,10.801653 c 0,0.05286 0.054294,0.141109 0.1210938,0.195312 0.06676,0.0542 1.437935,0.524771 3.046875,1.044922 1.6089399,0.520151 2.9568402,0.948099 2.9941402,0.951172 0.03731,0.0031 0.466135,-0.372055 0.953125,-0.833984 L 12,11.317278 l 0.894531,0.849609 c 0.492001,0.46669 0.937335,0.833142 0.990235,0.814453 0.05286,-0.01869 1.391439,-0.446554 2.974609,-0.951172 C 19.589975,11.159824 20,11.00061 20,10.813372 20,10.769482 19.613515,10.363897 19.140625,9.911028 18.667725,9.458158 18.28125,9.056035 18.28125,9.016497 c 0,-0.03954 0.389857,-0.4485959 0.867188,-0.9082039 C 19.844758,7.4378151 20.00725,7.2442296 19.96875,7.1278247 19.93023,7.0112845 19.491018,6.8416869 17.736328,6.2664966 16.534898,5.8726698 15.155575,5.4246299 14.671875,5.272356 L 13.792969,5.0040122 12.896484,5.8563403 12,6.7137622 11.101563,5.8524341 Z m 1.810547,1.9929531 2.230469,0.7421875 C 15.470329,8.1428051 16.485322,8.4864051 16.5,8.5008711 16.51472,8.5153311 15.531965,8.853311 14.316406,9.250871 13.100847,9.648432 12.074586,9.982449 12.035156,9.993059 11.946043,10.01702 7.4594194,8.5388581 7.5,8.4989181 7.516204,8.4829941 8.5402554,8.1374361 9.7734375,7.7313403 Z M 12,12.698137 11.802734,12.883684 c -0.251564,0.238619 -0.48648,0.455024 -0.673828,0.619141 -0.09367,0.08206 -0.173593,0.150428 -0.25,0.210937 -0.0382,0.03025 -0.07292,0.05625 -0.128906,0.09375 -0.028,0.01875 -0.05771,0.04106 -0.123047,0.07422 -0.03267,0.01658 -0.07371,0.03653 -0.146484,0.06055 -0.03639,0.01201 -0.08199,0.02422 -0.144531,0.03516 -0.06207,0.01086 -0.25239,0.01176 -0.25586,0.01172 -0.0012,-9.6e-5 -0.1465875,-0.02252 -0.1660155,-0.02734 -0.019429,-0.0048 -0.0314,-0.0085 -0.042969,-0.01172 -0.023138,-0.0064 -0.043308,-0.01205 -0.068359,-0.01953 C 9.7526315,13.915612 9.687673,13.896892 9.607422,13.871982 9.4469196,13.822138 9.2237471,13.751487 8.9511719,13.664934 8.4060215,13.491828 7.6672235,13.253596 6.8613281,12.993059 6.5337971,12.887172 6.3032741,12.806782 6.0039062,12.707903 c 0.0052,1.84717 0.037212,4.332653 0.076172,4.392578 0.039418,0.06062 1.3630086,0.533822 2.9394531,1.052734 h 0.00195 c 1.5765037,0.518882 2.9804687,0.846679 2.9804687,0.846679 v -0.01367 c 2.078469,-0.647602 5.902347,-1.870118 5.902347,-1.870118 C 17.976486,17.02769 18,16.431513 18,14.73134 c 0,-0.512937 -0.001,-1.297769 -0.0039,-2.017578 -0.275667,0.08887 -0.488608,0.159447 -0.833985,0.269531 -0.791396,0.252249 -1.519876,0.486006 -2.058593,0.658203 -0.269359,0.0861 -0.491501,0.156653 -0.648438,0.207032 -0.156938,0.05038 -0.343607,0.114102 -0.236328,0.07617 -8.27e-4,2.92e-4 -0.16714,0.04577 -0.234375,0.05273 -0.06724,0.0069 -0.123587,0.0051 -0.171875,0.002 -0.09659,-0.0064 -0.161218,-0.02062 -0.212891,-0.03516 -0.103347,-0.02907 -0.156516,-0.05767 -0.201172,-0.08008 -0.08931,-0.04481 -0.137682,-0.07718 -0.1875,-0.111328 -0.09964,-0.06832 -0.187982,-0.137987 -0.291021,-0.222692 -0.206079,-0.169409 -0.452308,-0.389541 -0.712891,-0.636718 z"/>
</svg>

<svg width="24" height="24" version="1.1" xmlns="http://www.w3.org/2000/svg">
  <defs>
    <style id="current-color-scheme" type="text/css">.ColorScheme-Text { color:#ebdbb2; } .ColorScheme-Highlight { color:#458588; }</style>
  </defs>
  <path class="ColorScheme-Text" d="m10.2 5-1.924 0.614c-4.066 1.312-4.197 1.359-4.248 1.514-0.03864 0.1169 0.1228 0.3089 0.8203 0.9805 0.4773 0.4596 0.8672 0.87 0.8672 0.9121 0 0.04215-0.3865 0.4383-0.8594 0.8809s-0.8594 0.8475-0.8594 0.9004c0 0.05286 0.05429 0.1411 0.1211 0.1953 0.06676 0.0542 1.438 0.5248 3.047 1.045s2.994 0.9512 2.994 0.9512l1.838-1.676 1.885 1.664s0.6734-0.218 2.975-0.9512c2.731-0.8703 3.141-1.03 3.141-1.217 0-0.04389-0.3865-0.4495-0.8594-0.9023-0.4729-0.4529-0.8594-0.855-0.8594-0.8945 0-0.03954 0.3899-0.4486 0.8672-0.9082 0.6963-0.6705 0.8588-0.8641 0.8203-0.9805-0.03852-0.1165-0.4777-0.2861-2.232-0.8613-1.201-0.3938-2.581-0.8419-3.064-0.9941l-0.8789-0.2683-1.793 1.71zm1.811 1.993 4.486 1.508-4.5 1.492-4.5-1.494zm-0.01367 5.705s-0.579 0.5383-0.8711 0.8046c-0.4486 0.393-0.6098 0.4913-1.049 0.4863-0.1084-0.0089-0.2607-0.05137-0.4726-0.1172-0.8984-0.2789-1.842-0.5821-3.604-1.164 0.0052 1.847 0.00205 4.243 0.07617 4.393 0.00897-0.0012 5.92 1.899 5.92 1.899l5.903-1.883c0.1084-0.1328 0.09668-2.624 0.0918-4.403-1.258 0.4074-2.518 0.8072-3.778 1.211-0.01865 0.0066-0.1998 0.06828-0.4063 0.05468-0.3146-0.02071-0.5375-0.1572-0.8926-0.4492-0.1761-0.1447-0.9182-0.832-0.9182-0.832z" fill="currentColor"/>
</svg>
